packages/ffe-icons/icons/open/400/sm/expand_content.svg

<svg xmlns="http://www.w3.org/2000/svg" height="20" viewBox="0 -960 960 960" width="20"><path d="M312-312h132q15.3 0 25.65 10.289 10.35 10.29 10.35 25.5Q480-261 469.65-250.5 459.3-240 444-240H276q-15.3 0-25.65-10.35Q240-260.7 240-276v-168q0-15.3 10.289-25.65 10.29-10.35 25.5-10.35Q291-480 301.5-469.65 312-459.3 312-444v132Zm336-336H516q-15.3 0-25.65-10.289-10.35-10.29-10.35-25.5Q480-699 490.35-709.5 500.7-720 516-720h168q15.3 0 25.65 10.35Q720-699.3 720-684v168q0 15.3-10.289 25.65-10.29 10.35-25.5 10.35Q669-480 658.5-490.35 648-500.7 648-516v-132Z"/></svg>

<svg xmlns="http://www.w3.org/2000/svg" height="20" viewBox="0 -960 960 960" width="20"><path d="M312-312h132q15.3 0 25.65 10.29Q480-291.42 480-276.21t-10.35 25.71Q459.3-240 444-240H276q-15.3 0-25.65-10.35Q240-260.7 240-276v-168q0-15.3 10.29-25.65Q260.58-480 275.79-480t25.71 10.35Q312-459.3 312-444v132Zm336-336H516q-15.3 0-25.65-10.29Q480-668.58 480-683.79t10.35-25.71Q500.7-720 516-720h168q15.3 0 25.65 10.35Q720-699.3 720-684v168q0 15.3-10.29 25.65Q699.42-480 684.21-480t-25.71-10.35Q648-500.7 648-516v-132Z"/></svg>
